www/source/img/svg/delivery.svg

<svg width="75" height="75" viewBox="0 0 75 75" fill="none" xmlns="http://www.w3.org/2000/svg">
<path d="M75 35.5743L58.571 18.9177H48.3902V10.7847H0V53.5123H14.9151C14.8532 53.9463 14.8194 54.3891 14.8194 54.8398C14.8194 60.0095 19.0247 64.2148 24.1944 64.2148C29.364 64.2148 33.5694 60.0095 33.5694 54.8398C33.5694 54.3891 33.5356 53.9463 33.4737 53.5123H50.8526C50.7908 53.9463 50.7569 54.3891 50.7569 54.8398C50.7569 60.0095 54.9623 64.2148 60.1319 64.2148C65.3016 64.2148 69.5069 60.0095 69.5069 54.8398C69.5069 54.3891 69.4731 53.9463 69.4113 53.5123H75V35.5743ZM24.1944 61.0899C20.7474 61.0899 17.9444 58.2862 17.9444 54.84C17.9444 51.3938 20.7474 48.59 24.1944 48.59C27.6413 48.59 30.4443 51.394 30.4443 54.84C30.4443 58.2862 27.6412 61.0899 24.1944 61.0899ZM45.2651 18.9177V50.3874H32.4427C30.8553 47.4585 27.7535 45.465 24.1944 45.465C20.6353 45.465 17.5333 47.4585 15.9461 50.3874H3.12505V13.9097H45.2653V18.9177H45.2651ZM60.1319 61.0899C56.6848 61.0899 53.8818 58.2862 53.8818 54.84C53.8818 51.3938 56.6848 48.59 60.1319 48.59C63.5789 48.59 66.3819 51.394 66.3819 54.84C66.3819 58.2862 63.5787 61.0899 60.1319 61.0899ZM71.875 50.3874H68.3803C66.7929 47.4585 63.6911 45.465 60.1319 45.465C56.5727 45.465 53.4709 47.4585 51.8835 50.3874H48.3902V22.0428H57.2646L71.875 36.856V50.3874Z" fill="#FF6D1C"/>
<path d="M9.21027 32.9667H13.3336V31.5168H9.21027V28.9631H13.826L13.839 27.4995H7.64062V36.7978H9.21027V32.9667Z" fill="#FF6D1C"/>
<path d="M17.2436 33.672H19.3058L21.527 36.7978H23.5222L21.0876 33.4193C22.4266 33.02 23.0967 32.0537 23.0967 30.5193C23.0967 29.4642 22.7903 28.6968 22.1788 28.2178C21.5671 27.7392 20.5507 27.4995 19.1326 27.4995H15.6738V36.7978H17.2435V33.672H17.2436ZM17.2436 28.923H19.2386C20.0808 28.923 20.6665 29.0361 20.9945 29.2623C21.3226 29.4881 21.4871 29.9055 21.4871 30.5127C21.4871 31.12 21.327 31.5616 21.0076 31.836C20.6892 32.1109 20.0852 32.2484 19.1987 32.2484H17.2436V28.923Z" fill="#FF6D1C"/>
<path d="M32.0483 35.3212H26.9271V32.8335H31.3827V31.4372H26.9271V28.9761H31.8882V27.4995H25.3574V36.7978H32.0483V35.3212Z" fill="#FF6D1C"/>
<path d="M40.7485 35.3212H35.6273V32.8335H40.0829V31.4372H35.6273V28.9761H40.5884V27.4995H34.0576V36.7978H40.7485V35.3212Z" fill="#FF6D1C"/>
</svg>

<svg width="75" height="75" fill="none" xmlns="http://www.w3.org/2000/svg"><path d="M75 35.574L58.571 18.918h-10.18v-8.133H0v42.727h14.915a9.393 9.393 0 00-.096 1.328c0 5.17 4.206 9.375 9.375 9.375 5.17 0 9.375-4.206 9.375-9.375 0-.45-.033-.894-.095-1.328h17.379a9.408 9.408 0 00-.096 1.328c0 5.17 4.205 9.375 9.375 9.375s9.375-4.206 9.375-9.375c0-.45-.034-.894-.096-1.328H75V35.574zM24.194 61.09a6.257 6.257 0 01-6.25-6.25 6.257 6.257 0 016.25-6.25 6.257 6.257 0 016.25 6.25 6.257 6.257 0 01-6.25 6.25zm21.071-42.172v31.47H32.443a9.383 9.383 0 00-8.249-4.923 9.383 9.383 0 00-8.248 4.922H3.126V13.91h42.14v5.008zM60.132 61.09a6.257 6.257 0 01-6.25-6.25 6.257 6.257 0 016.25-6.25 6.257 6.257 0 016.25 6.25 6.257 6.257 0 01-6.25 6.25zm11.743-10.703H68.38c-1.587-2.928-4.689-4.922-8.248-4.922a9.38 9.38 0 00-8.248 4.922H48.39V22.043h8.875l14.61 14.813v13.531z" fill="#FF6D1C"/><path d="M9.21 32.967h4.124v-1.45H9.21v-2.554h4.616l.013-1.463H7.641v9.298h1.57v-3.831zm8.034.705h2.062l2.221 3.126h1.995l-2.434-3.379c1.339-.399 2.009-1.365 2.009-2.9 0-1.055-.307-1.822-.918-2.301-.612-.479-1.628-.718-3.046-.718h-3.46v9.298h1.57v-3.126zm0-4.749h1.995c.842 0 1.427.113 1.755.34.329.225.493.642.493 1.25 0 .607-.16 1.049-.48 1.323-.318.275-.922.412-1.808.412h-1.955v-3.325zm14.804 6.398h-5.12v-2.487h4.455v-1.397h-4.456v-2.46h4.961V27.5h-6.53v9.298h6.69V35.32zm8.7 0h-5.12v-2.487h4.455v-1.397h-4.456v-2.46h4.961V27.5h-6.53v9.298h6.69V35.32z" fill="#FF6D1C"/></svg>
